assets/icons/uE02C-toolbox.svg

<svg xmlns="http://www.w3.org/2000/svg" width="896" height="1232" viewBox="0 0 896 1232"><path d="M539 168q19 0 34 15t15 34v91H308v-91q0-19 14.5-34t33.5-15h183zm-7 84v-28H364v28h168zm308 0q23 0 39.5 16.5T896 308v280q0 33-28 49v259q0 23-16.5 39.5T812 952H84q-23 0-39.5-16.5T28 896V637Q0 621 0 588V308q0-23 16.5-39.5T56 252h140v-35q0-67 47-114t113-47h183q67 0 114 47t47 114v35h140zm-28 644V616h-56v84H588v-84H308v84H140v-84H84v280h728zM168 672h112V560H168v112zm448 0h112V560H616v112zm224-84V308H644v-91q0-43-31-74t-74-31H356q-43 0-73.5 31T252 217v91H56v280h84v-56h168v56h280v-56h168v56h84z"/></svg>

<?xml version="1.0" encoding="UTF-8" standalone="no"?><svg   xmlns:svg="http://www.w3.org/2000/svg"   xmlns="http://www.w3.org/2000/svg"   version="1.1"   width="896"   height="1232"   viewBox="0 0 896 1232">  <path     d="M539 168Q558 168 573 183T588 217V308H308V217Q308 198 322.5 183T356 168H539zM532 252V224H364V252H532zM840 252Q863 252 879.5 268.5T896 308V588Q896 621 868 637V896Q868 919 851.5 935.5T812 952H84Q61 952 44.5 935.5T28 896V637Q0 621 0 588V308Q0 285 16.5 268.5T56 252H196V217Q196 150 243 103T356 56H539Q606 56 653 103T700 217V252H840zM812 896V616H756V700H588V616H308V700H140V616H84V896H812zM168 672H280V560H168V672zM616 672H728V560H616V672zM840 588V308H644V217Q644 174 613 143T539 112H356Q313 112 282.5 143T252 217V308H56V588H140V532H308V588H588V532H756V588H840z"     id="icon248" /></svg>
